/* XPM */
static char * epic_calculator_xpm[] = {
"32 32 5 1",
"  c #FFFFFF",
". c #CCCCCC",
"o c #EEEEEE",
"x c #AAAAAA",
"# c #000000",
"                                ",
"                                ",
"  ############################  ",
"  #..........................#  ",
"  #...####################...#  ",
"  #...#oooooooooooooooooo#...#  ",
"  #...#oooooooooooooooooo#...#  ",
"  #...#oooooooooooooooooo#...#  ",
"  #...#oooooooooooooooooo#...#  ",
"  #...#oooooooooooooooooo#...#  ",
"  #...####################...#  ",
"  #..........................#  ",
"  #.#####.#####.#####.#####..#  ",
"  #.#xxx#.#xxx#.#xxx#.#xxx#..#  ",
"  #.#xxx#.#xxx#.#xxx#.#xxx#..#  ",
"  #.#xxx#.#xxx#.#xxx#.#xxx#..#  ",
"  #.#####.#####.#####.#####..#  ",
"  #..........................#  ",
"  #.#####.#####.#####.#####..#  ",
"  #.#xxx#.#xxx#.#xxx#.#xxx#..#  ",
"  #.#xxx#.#xxx#.#xxx#.#xxx#..#  ",
"  #.#xxx#.#xxx#.#xxx#.#xxx#..#  ",
"  #.#####.#####.#####.#####..#  ",
"  #..........................#  ",
"  #.#####.#####.#####.#####..#  ",
"  #.#xxx#.#xxx#.#xxx#.#xxx#..#  ",
"  #.#xxx#.#xxx#.#xxx#.#xxx#..#  ",
"  #.#xxx#.#xxx#.#xxx#.#xxx#..#  ",
"  #.#####.#####.#####.#####..#  ",
"  ############################  ",
"                                ",
"                                ",
};